X:1
T: Stanley Burn
C:Muriel A Johnstone
R:Reel
%Q: 232
K:D
M:4/4
L:1/8
|:A2|A2 FA d2 A2|B2 GB A2 A2|A2 FA d2 f2|gf ed e2 E2|
A2 FA d2 A2|B2 GB A2 a2|gf ed cB AG|F2 D2 D2 dA|
F2 d2 d2 f2|ge dc e2 AG|F2 d2 d2 f2|ed cB A2 BA|
G2 g2 g2 ab|ag fe d2 f2|gf ed cB AG|F2 D2 D2:|
